X:376
T: ES TRIEB EIN SCHAEFER OBEN REIN
N: E0212
O: Europa, Mitteleuropa, Deutschland, Brandenburg
R: erzaehlendes Volks - Lied, Mahn -, Moral - Lied, Strafe; Rabenmutter
M: 2/4
L: 1/16
K: Bb
F2 | B3AB2c2 | d4c4 | B4z2
c2 | d2c2d2e2 | f4e2d2 | d4
f4 | e2d2c2B2 | d2c2B2A2 | B4d2B2 | c4
f4 | e2d2c2B2 | d2c2B2A2 | B4z2

